X:16
T:The Duke of Leinster (Ghosts of Erin Version)
R:reel
M:C|
L:1/8
Z:Julie Ross
K:G
G2BG DGBc | d2eB dBAB | G2BG DGBc | dBAB GEDE |
G2BG DGBc | d2eB  dBAB |1 G~B3 d~B3 | dBAB GEDE :|2 GABd edge | dBAB GABc||
|: dega b~g3 | agbg ageg | dega bage | dBAB GED2 |
dega b~g3 | agbg agef | g2fg efge |1 dBAB GABc :|2 dBAB GEDE ||
